X:86
T:Gossip Joan- Davey
%%VWML:SBG-1-2-737-0
F:http://www.vwml.org/record/SBG/1/2/737
Z:Original Sibelius transcriptions by M. & S. Graebe
L:1/4
M:4/4
I:linebreak $
K:G
V:1 treble nm="P1"
V:1
 d/ | g G B c | d3 c/B/ | c A D c | c B z g | d d d c/B/ | (c3 D) | (c3 B/)A/ |$ (B3 D) | %9
 (A3 G/)(F/ | G3) g | d g d g | (a/g/f/e/ d) c | B2 A2 | G3 x | %15

